X: 19003
T: Inspector Donald Campbell Of Ness
R: jig
M: 6/8
K: Amajor
A3 c2B|cff ecA|a3 ecc|fee faa|
A3 c2B|cff ecA|acc Bcc|ecA A2e:|
f3 fec|e3 ecB|c3 cBc|Ace faa|
f3 fec|e3 cBc|acc Bcc|1 ecA A2e:|2 ecA A2a||
c3 B3|cff ecA|a3 f3|eaa fef|
c3 B3|cff ecA|acc Bcc|ecA A2a:|
c3 cBc|e3 ece|f3 fef|afe faa|
c3 cBc|eff Ace|acc Bcc|1 ecA A2B:|2 ecA A3||

